!!!OTL@@DE: Auf der Alm
!!!COM: Poissl., J.N. Frhrr. v.
!!!OMD: M&auml;ssig
!!!OCL: Erk, Ludwig
!!!GCO: Deutscher Liederschatz, Band 2
**kern	**kern	**kern
*staff3	*staff2	*staff1
*Ipiano	*Ipiano	*Ivox
*>[P,A,A1,A,A2,B,B1,B,B2,C,C1,C,C2,D]	*>[P,A,A1,A,A2,B,B1,B,B2,C,C1,C,C2,D]	*>[P,A,A1,A,A2,B,B1,B,B2,C,C1,C,C2,D]
*>P	*>P	*>P
*clefF4	*clefG2	*clefG2
*k[b-e-]	*k[b-e-]	*k[b-e-]
*B-:	*B-:	*B-:
*M3/4	*M3/4	*M3/4
*MM96	*MM96	*MM96
4r	4r	8.f/L
.	.	16e-/Jk
=1!|:	=1!|:	=1!|:
*>A	*>A	*>A
*^	*	*
2BB-\	4r	4r	(8d/L
.	.	.	8f/J)
.	4F/ 4B-/	4d/	4.dd\
4r	4F/ 4B-/	4d/	.
.	.	.	8cc\
=2	=2	=2	=2
2BB-\	4r	4r	(8b-/L
.	.	.	8d/J)
.	4F/ 4B-/	4d/	4.f/
.	4F/ 4B-/	4d/	.
.	.	.	8b-\
=3	=3	=3	=3
2FF\	4r	4r	8a/L
.	.	.	8c/J
.	4F/ 4A/	4c/	(8e-/L
.	.	.	8f/J)
.	4F/ 4A/	4e-/	(8a/L
.	.	.	8cc/J)
*v	*v	*	*
=4	=4	=4
*>A1	*>A1	*>A1
2BB-\	4r	(8b-/L
.	.	8d/J)
.	4F/ 4B-/ 4d/	4.f/
4FF\	4F/ 4A/ 4c/	.
.	.	8e-/
=5:|!	=5:|!	=5:|!
*>A2	*>A2	*>A2
2BB-\	4r	4b-\
.	4F/ 4B-/ 4d/	4r
4r	4r	4dd\
=6!|:	=6!|:	=6!|:
*>B	*>B	*>B
*^	*	*
4r	2C\	4r	(8cc\L
.	.	.	8b-\J)
4En/ 4B-/	.	4c/	4.g/
4G/ 4B-/	4r	4c/	.
.	.	.	8en/
=7	=7	=7	=7
4r	2FF\	4r	(8f/L
.	.	.	8a/J)
4F/ 4A/	.	4c/	4.cc\
4F/ 4A/	4r	4c/	.
.	.	.	8cc\
=8	=8	=8	=8
4r	2CC\	4r	(8dd\L
.	.	.	8cc\J)
4En/ 4G/ 4B-/	.	4r	(8b-/L
.	.	.	8c/J)
4E/ 4G/ 4B-/	4C\	4c/	(8en/L
.	.	.	8g/J)
*v	*v	*	*
=9	=9	=9
*>B1	*>B1	*>B1
*^	*	*
4r	2FF\	4r	(8f/L
.	.	.	8a/J)
4F/ 4A/	.	4c/	4.ff\
4F/ 4B-/	4BB-\	4d/	.
.	.	.	8dd\
*v	*v	*	*
=10:|!	=10:|!	=10:|!
*>B2	*>B2	*>B2
*^	*	*
4r	4FF\	4r	4f/
4F/ 4A/	4FF\	4c/	4r
4r	4r	4r	8.f/
.	.	.	16e-/
*v	*v	*	*
=11!|:	=11!|:	=11!|:
*>C	*>C	*>C
*^	*	*
4r	2BB-\	4r	(8d/L
.	.	.	8f/J)
4F/ 4B-/	.	4d/	4.dd\
4F/ 4B-/	4r	4d/	.
.	.	.	8cc\
=12	=12	=12	=12
4r	2BB-\	4r	8b-/L
.	.	.	8d/J
4F/ 4B-/	.	4d/	4.f/
4F/ 4B-/	4r	4d/	.
.	.	.	8b-\
*v	*v	*	*
=13	=13	=13
*>C1	*>C1	*>C1
*^	*	*
4r	2FF\	4r	(8a/L
.	.	.	8c/J)
4F/ 4A/	.	4c/	(8e-/L
.	.	.	8f/J)
4F/ 4A/	4r	4e-/	(8a/L
.	.	.	8cc/J)
=14	=14	=14	=14
4r	2BB-\	4r	(8b-/L
.	.	.	8d/J)
4F/ 4B-/	.	4d/	4.f/
4F/ 4A/	4FF\	4c/	.
.	.	.	8e-/
*v	*v	*	*
=15:|!	=15:|!	=15:|!
*>C2	*>C2	*>C2
*^	*	*
4r	2FF\	4r	(8gg\L
.	.	.	8ff\J)
4F/ 4A/	.	4c/	8ee-\L
.	.	.	8f\J
4F/ 4A/	4r	4e-/	(8a/L
.	.	.	8cc/J)
=16	=16	=16	=16
4r	4BB-\	4r	4b-\
4F/ 4B-/	4BBB-\	4d/	4r
4r	4r	4r	4ff\
*v	*v	*	*
=17	=17	=17
*>D	*>D	*>D
2F\	8r	(8gg\L
.	8c/L	8ff\J
.	8e-/ 8f/ 8a/	8ee-\L)
.	8c/J	8f\J
4F\	4e-/ 4f/ 4a/	4cc\
=18	=18	=18
2B-\	8r	(8ee-\L
.	8d/L	8dd\J)
.	8f/ 8b-/	8b-/L
.	8d/J	8d/J
4B-\	4d/ 4f/ 4b-/	4f/
=19	=19	=19
2F\	8r	4f/
.	8c/L	.
.	8e-/ 8f/ 8a/	8cc/L
.	8c/J	8f/J
4F\	4e-/ 4f/ 4a/	4cc\
=20	=20	=20
2BB-/	8r	4f/
.	8d/L	.
.	8f/ 8b-/	8dd/L
.	8d/J	8f/J
4BB-/	4d/ 4f/ 4b-/	4b-\
=21	=21	=21
2F\	8r	(8gg\L
.	8c/L	8ff\J
.	8e-/ 8f/ 8a/	8ee-\L)
.	8c/J	8f\J
4F\	4e-/ 4f/ 4a/	4cc\
=22	=22	=22
2B-\	8r	8f/L
.	8d/L	8dd/J
.	8f/ 8b-/	8b-/L
.	8d/J	8d/J
4B-\	4d/ 4f/ 4b-/	4f/
=23	=23	=23
2F\	8r	4f/
.	8c/L	.
.	8e-/ 8f/ 8a/	8ee-\L
.	8c/J	8f\J
4F\	4e-/ 4f/ 4a/	8cc/L
.	.	8f/J
=24	=24	=24
4B-\	4r	2b-\
4BB-/	4d/ 4f/ 4b-/	.
==	==	==
*-	*-	*-
!!!ENC: Craig Stuart Sapp
!!!END: 2004/05/20/
!!!EFL: 211/600
